X:29
T:O'Carolan's Draught
C:Turlough O'Carolan (1670 - 1738)
R:Planxty
M:C
L:1/8
Q:1/4=60
K:G
|: BA | GABc defd | g2 fe d4 | e2 c2 d2 B2 | c2 Bc AcBA |
GABc defd | gfed ^ceag | gfed A2 ^c2 | d6 :|
|: fg | afga bagf | egfe edcB | e3 fgfga | bagf efga |
bB b2 aB a2 | gB g2 fB f2 | e3 f gfed | e2 ef e3 f | 
gfed cBAG | e2 d2 d4 | c2 B2 A2 G2 | FGAF D4 |
EFGE FGAF | GABG ABcA | d2 g2 bagf | g2 gf g2 :|



%
